X:157
%%pagewidth 8.5in
%%vocalfont Baskerville10Pro 14
T:Red Bull
M:6/8
L:1/8
K:F
%%score 1 2
V:1 clef-treble
V:2 clef-bass octave=-1
V:1
F|F2F G2A|(FE)FE3|D3(C2F)&x3x2C|
w:Sweet Nan-cy, I do love* thee dear, Be-lieve me
V:2
z|A3B2c&F,6-|A2cG3&F,2A,C3|B3A2A,&E3F2x|
V:1
F2EF2F|F2FG2[FA]|[D(F]E)F [^CE]3|D3(=C2[F)C]|[CF]2E[CF]3||
w:if thou can, And shall, I firm-ly do* declare,* While thy name is Nan. I
V:2
G3A2z&C3F,2z|A3B2A&D6|A3A3&D,3A,3|F3F2x&B,3F,2A,|G3A3&C3F3||
V:1
!f!A2=B (cd)c&[DF]3[EA]3|(de)f [c(e]d)c&[FA]3A3|[DAd]3A=Bc|[DGc]2=B [Ec]2!p!G|
w:can-not court* with el-*o-quence* As ma-*ny* cour-tiers do, But
V:2
[DFA]3[A,EA]3|[D,D]3[A,CE]3|[F,A,DF]6|[G,DG]3[CEG]3|
V:1
E2F (G>A)G&C6|(c>_B)A B3&C2CB,2C|[CA]3G2F&x3D3|F2E[CF]2&C3x2||
w:I do love* en-tire-*ly thee. Then love me dear-ly, too.
V:2
C2D E>FE&C6-|_E>G^F G3&C2DG,2=E|A3B3&F3B,3|[CG]3[F,A]2||

